X: 5953
T: Campbell River
R: jig
M: 6/8
K: Bminor
|:c|d2d c2c|BFE DB,C|DEF Bcd|c2A ABc|
dcd cBc|BFE DEF|Bcd cAc|B3 B2:|
|:c|dcd BAB|ede ABc|dcd Bcd|e3 cde|
fed BFE|DB,C DEF|Bcd cAc|B3 B2:|

